X:328
T:
C:Olof Laurin
R:polska
S:Av komminister Olof Laurin i Dalhem.
O:Gotland, Dalhem
M:3/4
L:1/16
K:D
d'2af dfAd FADF|A,2DF Adfa d'4|c'bc'd' e'c'ae cAEC|A,CEA ceac' e'4|
d'aba f'2d'2 c'g'e'c'|dABA f2d2 cgec|d'f'd'a fafd AdAF|AGEC E4 D4:|
|:ADFA A,GFE DCB,A,|afde fABc d4|bace agBd gfAd|fegf edcB AGFE|
DFAd fac'd' d4|babc' d'^gab a4|afba geag fdgf|eABc e4 d4:|
|:dcde fedc d4|dd'af d^GA_B A4|dd'af dd'_b=f d_BA=c|_BGFA GA,CE GCEG|
cEGc eAce gbag|gfdf feBe d4|dBGB BAFA AGEG|FAA,C E4 D4:|

